assets/ai/ai-open-access-square.svg

<svg xmlns="http://www.w3.org/2000/svg" width="100%" height="100%" viewBox="-75.52 -43.52 599.04 599.04"><path d="M 48 32 C 21.5 32 0 53.5 0 80 L 0 432 C 0 458.5 21.5 480 48 480 L 400 480 C 426.5 480 448 458.5 448 432 L 448 80 C 448 53.5 426.5 32 400 32 L 48 32 z M 224.19336 96 C 271.24358 96.000001 309.75391 134.5099 309.75391 181.56055 L 309.75391 262.11328 C 319.33942 277.53702 324.89062 295.70083 324.89062 315.10938 C 324.89062 370.62644 279.51706 416 224 416 C 168.48294 416 123.10938 370.62644 123.10938 315.10938 C 123.10938 259.59233 168.48294 214.2207 224 214.2207 C 242.77913 214.2207 260.39398 219.41793 275.48828 228.4375 L 275.48828 181.56055 C 275.48828 153.02785 252.72497 130.26562 224.19336 130.26562 C 195.66174 130.26562 172.90039 153.02785 172.90039 181.56055 L 172.90039 193.24609 L 138.63477 193.24609 L 138.63477 181.56055 C 138.63477 134.5099 177.1431 96 224.19336 96 z M 224 248.48438 C 187.00126 248.48437 157.375 278.11064 157.375 315.10938 C 157.375 352.10812 187.00126 381.73438 224 381.73438 C 260.99872 381.73438 290.625 352.10811 290.625 315.10938 C 290.625 278.11065 260.99872 248.48438 224 248.48438 z M 224.32812 287.14648 C 239.94029 287.14648 252.59766 299.80188 252.59766 315.41406 C 252.59766 331.02621 239.94028 343.68359 224.32812 343.68359 C 208.71596 343.68359 196.06055 331.02621 196.06055 315.41406 C 196.06055 299.80188 208.71596 287.14648 224.32812 287.14648 z"/></svg>

<svg xmlns="http://www.w3.org/2000/svg" width="100%" height="100%" viewBox="-75.52 -43.52 599.04 599.04"><path d="M48 32C21.5 32 0 53.5 0 80v352c0 26.5 21.5 48 48 48h352c26.5 0 48-21.5 48-48V80c0-26.5-21.5-48-48-48H48zm176.193 64c47.05 0 85.56 38.51 85.56 85.56v80.553c9.586 15.424 15.138 33.588 15.138 52.996C324.89 370.626 279.517 416 224 416s-100.89-45.374-100.89-100.89c0-55.518 45.373-100.89 100.89-100.89 18.78 0 36.394 5.198 51.488 14.218V181.56c0-28.533-22.763-51.295-51.295-51.295-28.531 0-51.293 22.762-51.293 51.295v11.685h-34.265v-11.685c0-47.051 38.508-85.561 85.558-85.561zM224 248.484c-36.999 0-66.625 29.627-66.625 66.625 0 37 29.626 66.625 66.625 66.625 36.999 0 66.625-29.626 66.625-66.625 0-36.998-29.626-66.625-66.625-66.625zm.328 38.662c15.612 0 28.27 12.656 28.27 28.268s-12.658 28.27-28.27 28.27-28.267-12.658-28.267-28.27 12.655-28.268 28.267-28.268z"/></svg>
